ui/StatusQ/src/assets/img/icons/homepage/wallet.svg

<svg fill="none" height="24" viewBox="0 0 24 24" width="24" xmlns="http://www.w3.org/2000/svg"><path clip-rule="evenodd" d="m1.80005 11.9998c0 .1002.00014.1995.00042.2979-.00029.0669-.00042.1343-.00042.2021h.00123c.00968 1.8966.07925 3.4445.2984 4.6914.23913 1.3606.66917 2.4423 1.46789 3.241.79873.7988 1.88039 1.2288 3.24099 1.4679 1.35476.2381 3.06493.2997 5.19144.2997 2.1266 0 3.8368-.0616 5.1915-.2997 1.3606-.2391 2.4423-.6691 3.241-1.4679.7987-.7987 1.2288-1.8804 1.4679-3.241.2192-1.2469.2887-2.7948.2984-4.6914h.0012c0-.0678-.0001-.1352-.0004-.2021.0003-.0984.0004-.1977.0004-.2979 0-.1693-.0003-.336-.0012-.5h.0012c0-.0253-.0005-.0503-.0016-.0751-.0111-1.8624-.0817-3.386-.298-4.61643-.2391-1.3606-.6692-2.44226-1.4679-3.24099-.7987-.79872-1.8804-1.22876-3.241-1.46789-1.3547-.23811-3.0649-.29963-5.1915-.29963-2.12651 0-3.83668.06152-5.19144.29963-1.3606.23913-2.44226.66917-3.24099 1.46789-.79872.79873-1.22876 1.88039-1.46789 3.24099-.21626 1.23043-.28685 2.75403-.29799 4.61653-.00109.0247-.00164.0497-.00164.075h.00123c-.00084.164-.00123.3307-.00123.5zm1.41747-.5733c-.00999.2745-.01545.5677-.017.8812.0061 1.9714.07353 3.4777.27802 4.6412.21399 1.2175.5652 1.9796 1.07898 2.4934s1.27587.865 2.49339 1.079c1.22337.215 2.82569.2785 4.94909.2785 2.1235 0 3.7258-.0635 4.9492-.2785 1.2175-.214 1.9796-.5652 2.4934-1.079s.865-1.2759 1.079-2.4934c.2044-1.1635.2719-2.6698.278-4.6412-.0016-.3135-.007-.6067-.017-.8812-.0409-.0939-.1738-.2546-.5915-.4474-.5197-.2399-1.2552-.4156-2.0475-.5375-.7808-.1201-1.5679-.181-2.1638-.2115-.1939-.01-.3666-.0166-.5109-.0211-.1092.2184-.271.4848-.5045.7517-.561.6411-1.4985 1.2391-2.9644 1.2391-1.4658 0-2.40333-.598-2.96425-1.2391-.23354-.2669-.39532-.5333-.50454-.7517-.14436.0045-.31701.0111-.51094.0211-.59587.0305-1.38292.0914-2.16378.2115-.79226.1219-1.52775.2976-2.04748.5375-.41773.1928-.55057.3535-.59149.4474zm17.38278-1.79621c-.1854-.91532-.5178-1.47925-1.0696-1.87342-.5217-.37261-1.3127-.64818-2.557-.82163-1.2386-.17266-2.8547-.23548-4.9737-.23548-2.11894 0-3.73496.06282-4.97362.23548-1.24431.17345-2.03531.44902-2.55696.82163-.55184.39417-.88427.9581-1.06965 1.87342.66852-.2775 1.48005-.45489 2.24384-.57239.84414-.12987 1.68209-.19403 2.30496-.22597.31251-.01603.57332-.02406.7568-.0281.09179-.00201.16435-.00303.2145-.00355l.05806-.00045.0157-.00006.00439-.00001h.00131.00043c.00016 0 .00029 0 .00029.7v-.7h.54654l.13119.52475.00049.00171c.00161.00549.00518.01732.01103.03457.01176.03464.0324.09024.06428.15981.06429.14026.17074.32959.33582.5182.314.3589.8765.761 1.9106.761 1.0342 0 1.5967-.4021 1.9107-.761.1651-.18861.2715-.37794.3358-.5182.0319-.06957.0525-.12517.0643-.15981.0059-.01725.0094-.02908.011-.03457l.0005-.0017.1312-.52476h.5465v.7c0-.7.0002-.7.0003-.7h.0005.0013l.0044.00001.0157.00006.058.00045c.0502.00052.1227.00154.2145.00355.1835.00404.4443.01207.7568.0281.6229.03194 1.4608.0961 2.305.22597.7638.1175 1.5753.29489 2.2438.57239zm-1.1577-5.07306c.4623.46229.7929 1.1256 1.0104 2.14082-.0354-.02722-.0717-.05403-.1086-.08041-.7908-.56489-1.8436-.88307-3.1774-1.06899-1.3395-.18671-3.0359-.24889-5.167-.24889-2.13096 0-3.82744.06218-5.1669.24889-1.33382.18593-2.38657.50411-3.17742 1.06899-.03693.02638-.07313.05318-.10863.08041.21752-1.01522.54819-1.67853 1.01047-2.14082.51378-.51378 1.27587-.86499 2.49339-1.07898 1.22337-.21501 2.82569-.27849 4.94909-.27849 2.1235 0 3.7258.06348 4.9492.27849 1.2175.21399 1.9796.5652 2.4934 1.07898z" fill="#09101c" fill-rule="evenodd"/></svg>

<svg width="24" height="24" viewBox="0 0 24 24" fill="none" xmlns="http://www.w3.org/2000/svg">
<g id="24/wallet">
<path id="body" fill-rule="evenodd" clip-rule="evenodd" d="M1.80005 11.9998C1.80005 12.1 1.80019 12.1993 1.80047 12.2977C1.80018 12.3646 1.80005 12.432 1.80005 12.4998H1.80128C1.81096 14.3964 1.88053 15.9443 2.09968 17.1912C2.33881 18.5518 2.76885 19.6335 3.56757 20.4322C4.3663 21.231 5.44796 21.661 6.80856 21.9001C8.16332 22.1382 9.87349 22.1998 12 22.1998C14.1266 22.1998 15.8368 22.1382 17.1915 21.9001C18.5521 21.661 19.6338 21.231 20.4325 20.4322C21.2312 19.6335 21.6613 18.5518 21.9004 17.1912C22.1196 15.9443 22.1891 14.3964 22.1988 12.4998H22.2C22.2 12.432 22.1999 12.3646 22.1996 12.2977C22.1999 12.1993 22.2 12.1 22.2 11.9998C22.2 11.8305 22.1997 11.6638 22.1988 11.4998H22.2C22.2 11.4745 22.1995 11.4495 22.1984 11.4247C22.1873 9.5623 22.1167 8.0387 21.9004 6.80827C21.6613 5.44767 21.2312 4.36601 20.4325 3.56728C19.6338 2.76856 18.5521 2.33852 17.1915 2.09939C15.8368 1.86128 14.1266 1.79976 12 1.79976C9.87349 1.79976 8.16332 1.86128 6.80856 2.09939C5.44796 2.33852 4.3663 2.76856 3.56757 3.56728C2.76885 4.36601 2.33881 5.44767 2.09968 6.80827C1.88342 8.0387 1.81283 9.5623 1.80169 11.4248C1.8006 11.4495 1.80005 11.4745 1.80005 11.4998H1.80128C1.80044 11.6638 1.80005 11.8305 1.80005 11.9998ZM3.21752 11.4265C3.20753 11.701 3.20207 11.9942 3.20052 12.3077C3.20662 14.2791 3.27405 15.7854 3.47854 16.9489C3.69253 18.1664 4.04374 18.9285 4.55752 19.4423C5.0713 19.9561 5.83339 20.3073 7.05091 20.5213C8.27428 20.7363 9.8766 20.7998 12 20.7998C14.1235 20.7998 15.7258 20.7363 16.9492 20.5213C18.1667 20.3073 18.9288 19.9561 19.4426 19.4423C19.9564 18.9285 20.3076 18.1664 20.5216 16.9489C20.726 15.7854 20.7935 14.2791 20.7996 12.3077C20.798 11.9942 20.7926 11.701 20.7826 11.4265C20.7417 11.3326 20.6088 11.1719 20.1911 10.9791C19.6714 10.7392 18.9359 10.5635 18.1436 10.4416C17.3628 10.3215 16.5757 10.2606 15.9798 10.2301C15.7859 10.2201 15.6132 10.2135 15.4689 10.209C15.3597 10.4274 15.1979 10.6938 14.9644 10.9607C14.4034 11.6018 13.4659 12.1998 12 12.1998C10.5342 12.1998 9.59667 11.6018 9.03575 10.9607C8.80221 10.6938 8.64043 10.4274 8.53121 10.209C8.38685 10.2135 8.2142 10.2201 8.02027 10.2301C7.4244 10.2606 6.63735 10.3215 5.85649 10.4416C5.06423 10.5635 4.32874 10.7392 3.80901 10.9791C3.39128 11.1719 3.25844 11.3326 3.21752 11.4265ZM20.6003 9.63029C20.4149 8.71497 20.0825 8.15104 19.5307 7.75687C19.009 7.38426 18.218 7.10869 16.9737 6.93524C15.7351 6.76258 14.119 6.69976 12 6.69976C9.88106 6.69976 8.26504 6.76258 7.02638 6.93524C5.78207 7.10869 4.99107 7.38426 4.46942 7.75687C3.91758 8.15104 3.58515 8.71497 3.39977 9.63029C4.06829 9.35279 4.87982 9.1754 5.64361 9.0579C6.48775 8.92803 7.3257 8.86387 7.94857 8.83193C8.26108 8.8159 8.52189 8.80787 8.70537 8.80383C8.79716 8.80182 8.86972 8.8008 8.91987 8.80028L8.97793 8.79983L8.99363 8.79977L8.99802 8.79976L8.99933 8.79976H8.99976C8.99992 8.79976 9.00005 8.79976 9.00005 9.49976V8.79976H9.54659L9.67778 9.32451L9.67827 9.32622C9.67988 9.33171 9.68345 9.34354 9.6893 9.36079C9.70106 9.39543 9.7217 9.45103 9.75358 9.5206C9.81787 9.66086 9.92432 9.85019 10.0894 10.0388C10.4034 10.3977 10.9659 10.7998 12 10.7998C13.0342 10.7998 13.5967 10.3977 13.9107 10.0388C14.0758 9.85019 14.1822 9.66086 14.2465 9.5206C14.2784 9.45103 14.299 9.39543 14.3108 9.36079C14.3167 9.34354 14.3202 9.33171 14.3218 9.32622L14.3223 9.32452L14.4535 8.79976H15V9.49976C15 8.79976 15.0002 8.79976 15.0003 8.79976H15.0008L15.0021 8.79976L15.0065 8.79977L15.0222 8.79983L15.0802 8.80028C15.1304 8.8008 15.2029 8.80182 15.2947 8.80383C15.4782 8.80787 15.739 8.8159 16.0515 8.83193C16.6744 8.86387 17.5123 8.92803 18.3565 9.0579C19.1203 9.1754 19.9318 9.35279 20.6003 9.63029ZM19.4426 4.55723C19.9049 5.01952 20.2355 5.68283 20.453 6.69805C20.4176 6.67083 20.3813 6.64402 20.3444 6.61764C19.5536 6.05275 18.5008 5.73457 17.167 5.54865C15.8275 5.36194 14.1311 5.29976 12 5.29976C9.86904 5.29976 8.17256 5.36194 6.8331 5.54865C5.49928 5.73458 4.44653 6.05276 3.65568 6.61764C3.61875 6.64402 3.58255 6.67082 3.54705 6.69805C3.76457 5.68283 4.09524 5.01952 4.55752 4.55723C5.0713 4.04345 5.83339 3.69224 7.05091 3.47825C8.27428 3.26324 9.8766 3.19976 12 3.19976C14.1235 3.19976 15.7258 3.26324 16.9492 3.47825C18.1667 3.69224 18.9288 4.04345 19.4426 4.55723Z" fill="#09101C"/>
</g>
</svg>
